build/img/icons/ruler2.svg

<svg width="40" height="40" fill="none" xmlns="http://www.w3.org/2000/svg">
    <path d="M2 2v36h36V24.5H15.5V2H2zm3 3h7.5v3H8v3h4.5v3H8v3h4.5v3H8v3h4.5v2.379l-7.5 7.5V5zm9.621 22.5H17V32h3v-4.5h3V32h3v-4.5h3V32h3v-4.5h3V35H7.121l7.5-7.5z" fill="#5CC773"/>
</svg>

<svg width="40" height="40" viewBox="0 0 40 40" fill="none" xmlns="http://www.w3.org/2000/svg">
<path d="M2 2V38H38V24.5H15.5V2H2ZM5 5H12.5V8H8V11H12.5V14H8V17H12.5V20H8V23H12.5V25.379L5 32.879V5ZM14.621 27.5H17V32H20V27.5H23V32H26V27.5H29V32H32V27.5H35V35H7.121L14.621 27.5Z" fill="#5CC773"/>
</svg>
